X:025
T: Kitty's Rambles to Youghall
N: O'Farrell's Pocket Companion v.1 (Sky ed. p.28)
N: "Irish"
M: 6/8
R: jig
L: 1/8
Q: 320
K: Dm
D|AGF c2A|def geg|fed cAF|GBA/G/ FDD|
A2F c2A |def geg|fed cAG |Adc d2 :|
A|dfa dfa|dfa afd|ceg ceg|ceg gfe|
fdd gdd|aba gfe|fed cAG|Adc d2 :|
